src/assets/img/globalping/cli-icon.svg

<svg width="66" height="56" viewBox="0 0 66 56" fill="none" xmlns="http://www.w3.org/2000/svg">
<path d="M57.5364 10.2839L1.43555 14.2839V42.9695C1.43555 47.6118 5.37393 51.2794 10.0045 50.9493L50.1054 48.0901C54.2923 47.7915 57.5364 44.3078 57.5364 40.1103V10.2839Z" fill="white" stroke="#E7E7EE" stroke-width="2" stroke-miterlimit="10" stroke-linecap="round"/>
<path d="M49.708 1.99371L8.86659 4.90571C4.67972 5.20424 1.43555 8.68795 1.43555 12.8855V13.2838L57.5364 9.28384C57.5364 5.0427 53.9384 1.69209 49.708 1.99371Z" fill="#17233A" stroke="#E7E7EE" stroke-width="2" stroke-miterlimit="10" stroke-linecap="round"/>
<path d="M51.708 1.99371L10.8666 4.90571C6.67972 5.20424 3.43555 8.68795 3.43555 12.8855V13.2838L59.5364 9.28384C59.5364 5.0427 55.9384 1.69209 51.708 1.99371Z" fill="#E7E7EE"/>
<path d="M51.708 1.99371L10.8666 4.90571C6.67972 5.20424 3.43555 8.68795 3.43555 12.8855V13.2838L59.5364 9.28384C59.5364 5.0427 55.9384 1.69209 51.708 1.99371Z" fill="url(#paint0_radial_4018_9779)"/>
<path d="M51.708 1.99371L10.8666 4.90571C6.67972 5.20424 3.43555 8.68795 3.43555 12.8855V13.2838L59.5364 9.28384C59.5364 5.0427 55.9384 1.69209 51.708 1.99371Z" stroke="#E7E7EE" stroke-width="2" stroke-miterlimit="10" stroke-linecap="round"/>
<path d="M8.98164 10.9189C9.89809 10.9189 10.641 10.1759 10.641 9.25947C10.641 8.34303 9.89809 7.6001 8.98164 7.6001C8.06519 7.6001 7.32227 8.34303 7.32227 9.25947C7.32227 10.1759 8.06519 10.9189 8.98164 10.9189Z" fill="#B8B8CC"/>
<path d="M13.5983 10.5187C14.5147 10.5187 15.2577 9.77578 15.2577 8.85933C15.2577 7.94288 14.5147 7.19995 13.5983 7.19995C12.6818 7.19995 11.9389 7.94288 11.9389 8.85933C11.9389 9.77578 12.6818 10.5187 13.5983 10.5187Z" fill="#B8B8CC"/>
<path d="M18.2149 10.1715C19.1314 10.1715 19.8743 9.42861 19.8743 8.51216C19.8743 7.59571 19.1314 6.85278 18.2149 6.85278C17.2985 6.85278 16.5555 7.59571 16.5555 8.51216C16.5555 9.42861 17.2985 10.1715 18.2149 10.1715Z" fill="#B8B8CC"/>
<path d="M59.5364 9.28394L3.43555 13.2839V43.9695C3.43555 48.6118 7.37393 52.2794 12.0045 51.9493L52.1054 49.0901C56.2923 48.7915 59.5364 45.3078 59.5364 41.1103V9.28394Z" fill="white" stroke="#E7E7EE" stroke-width="2" stroke-miterlimit="10" stroke-linecap="round"/>
<g filter="url(#filter0_d_4018_9779)">
<path d="M38.973 30.6845C38.3968 31.3053 37.9996 32.0644 37.8123 32.8803C37.3005 30.9701 35.4982 29.6006 33.4253 29.7292L33.4253 29.7292L33.4201 29.7296C32.5317 29.7893 31.6801 30.1055 30.9656 30.6392C30.2484 31.1716 29.6938 31.8951 29.3624 32.727C29.0291 33.5522 28.942 34.4578 29.1115 35.332C29.2791 36.2017 29.7126 36.9981 30.3532 37.6075C30.9937 38.2169 31.8088 38.6082 32.6839 38.7237C33.5631 38.842 34.4568 38.6976 35.2552 38.3092C36.0604 37.9177 36.7397 37.3068 37.2181 36.5473C37.4129 36.2415 37.5709 35.9156 37.69 35.5764V42.6952C37.6835 43.2829 37.7973 43.866 38.0245 44.4077C38.2527 44.9514 38.5905 45.4421 39.0171 45.8479C39.4438 46.2537 39.9501 46.5658 40.504 46.7634C41.0574 46.9608 41.6457 47.0393 42.2312 46.9938C43.4178 46.9049 44.5255 46.3684 45.337 45.4943C46.1486 44.6202 46.6054 43.4718 46.6209 42.2765L46.621 42.2765V42.2635V33.4833C46.6272 32.8956 46.5131 32.3126 46.2856 31.771C46.0573 31.2274 45.7194 30.7369 45.2927 30.3312C44.866 29.9255 44.3599 29.6135 43.8061 29.4159C43.2528 29.2185 42.6646 29.1398 42.0792 29.185C40.8925 29.2737 39.7845 29.8102 38.973 30.6845L39.6909 31.3508L38.973 30.6845Z" fill="#17D4A7" stroke="#69E7C8" stroke-width="2" stroke-linecap="round" stroke-linejoin="round"/>
<path d="M39.7059 19.963L39.706 19.963C38.9571 19.5014 38.3732 18.8138 38.0349 17.9998L38.0342 17.9983C37.6947 17.1777 37.6065 16.2734 37.7804 15.4021L39.7059 19.963ZM39.7059 19.963L39.7098 19.9654M39.7059 19.963L39.7098 19.9654M39.7098 19.9654C40.063 20.1808 40.4431 20.3426 40.8379 20.4475L33.3978 20.9168L33.3978 20.9167L33.3864 20.9176C32.1992 21.0061 31.0907 21.5427 30.2787 22.4172C29.4671 23.2914 29.0103 24.4397 28.9948 25.635L28.9948 25.6361C28.9877 26.226 29.1018 26.8112 29.3301 27.3548C29.5585 27.8984 29.8963 28.3889 30.323 28.7946C30.7497 29.2003 31.2559 29.5123 31.8097 29.7099C32.3611 29.9067 32.9471 29.9855 33.5306 29.9412L42.218 29.3933L42.218 29.3933L42.2294 29.3925C43.4166 29.304 44.5251 28.7674 45.337 27.8928C46.1486 27.0187 46.6054 25.8703 46.621 24.675L46.621 24.674C46.628 24.0841 46.514 23.4988 46.2856 22.9553C46.0573 22.4117 45.7194 21.9212 45.2927 21.5155C44.866 21.1098 44.3599 20.7978 43.8061 20.6002C43.5941 20.5245 43.377 20.4663 43.1569 20.4258C45.1664 19.8811 46.6253 18.0458 46.6253 15.8872V15.8528C46.6291 14.9678 46.3652 14.1018 45.8675 13.3713L45.8675 13.3713L45.8648 13.3674C45.3645 12.6407 44.6494 12.09 43.8194 11.7961L43.8174 11.7954M39.7098 19.9654L43.8174 11.7954M43.8174 11.7954C42.9819 11.5016 42.0782 11.4679 41.2233 11.6991L43.8174 11.7954ZM38.9772 13.0572C38.3695 13.7119 37.9556 14.5242 37.7804 15.4021L41.2231 11.6992C40.3626 11.9314 39.585 12.4025 38.9772 13.0572Z" fill="#17D4A7" stroke="#69E7C8" stroke-width="2" stroke-linecap="round" stroke-linejoin="round"/>
<path d="M54.0266 27.3428C54.6035 26.7213 55.0011 25.9612 55.1882 25.1443C55.6993 27.0551 57.5016 28.4251 59.5747 28.2965L59.5802 28.2961C60.4688 28.2361 61.3207 27.9199 62.0357 27.3863C62.7518 26.8536 63.3061 26.1309 63.6386 25.3001C63.9711 24.4747 64.0582 23.5695 63.8897 22.6953L63.8897 22.6952C63.7219 21.8254 63.2882 21.029 62.6475 20.4197C62.0069 19.8106 61.1919 19.4195 60.317 19.3041C59.4375 19.186 58.5435 19.3303 57.7448 19.7186L57.7439 19.7191C56.9395 20.1113 56.2607 20.7218 55.782 21.4805C55.587 21.7869 55.4291 22.1135 55.31 22.4534V15.3124C55.3167 14.7246 55.2031 14.1415 54.9759 13.5997C54.7478 13.0558 54.41 12.565 53.9832 12.1592C53.5564 11.7532 53.05 11.4412 52.496 11.2436L52.1602 12.1856L52.496 11.2436C51.9426 11.0464 51.3543 10.9679 50.7688 11.0136C49.5822 11.1023 48.4744 11.6388 47.663 12.5131C46.8515 13.3874 46.395 14.5361 46.3801 15.7315L46.38 15.7315V15.7439V24.5429C46.3733 25.1307 46.487 25.7138 46.7142 26.2556C46.9423 26.7995 47.2801 27.2903 47.7068 27.6962C48.1336 28.1021 48.64 28.4142 49.194 28.6117C49.7474 28.8089 50.3355 28.8874 50.9209 28.8417C52.1074 28.7531 53.2151 28.2168 54.0266 27.3428Z" fill="#17D4A7" stroke="#69E7C8" stroke-width="2" stroke-linecap="round" stroke-linejoin="round"/>
<path d="M53.2968 38.0369L53.2968 38.0369C54.044 38.4994 54.6268 39.1864 54.9658 39.999L54.9672 40.0023C55.3058 40.8227 55.394 41.7263 55.2208 42.5972L55.2206 42.5985C55.0448 43.4759 54.6308 44.2878 54.0234 44.9422C53.4158 45.5968 52.6386 46.0679 51.7785 46.3007L51.7775 46.3009C50.9226 46.5314 50.0192 46.4978 49.1836 46.2049L49.1805 46.2038C48.3501 45.9097 47.6351 45.3581 47.1356 44.6304L47.1341 44.6282C46.6358 43.8981 46.3717 43.032 46.3758 42.147V42.1106C46.3758 39.9736 47.8061 38.1535 49.7848 37.5893C49.5847 37.5496 49.3872 37.4953 49.194 37.4264C48.64 37.2289 48.1336 36.9168 47.7068 36.5109C47.2801 36.105 46.9423 35.6142 46.7142 35.0703C46.4862 34.5266 46.3725 33.9412 46.3801 33.3513L53.2968 38.0369ZM53.2968 38.0369L53.2904 38.033C52.9605 37.8322 52.6073 37.6781 52.2407 37.5733M53.2968 38.0369L52.2407 37.5733M52.2407 37.5733L59.6022 37.109L59.6022 37.109L59.6134 37.1082C60.8005 37.02 61.909 36.4836 62.7208 35.6091C63.5323 34.7351 63.989 33.5867 64.0042 32.3916M52.2407 37.5733L46.3801 33.3507M64.0042 32.3916C64.0042 32.3917 64.0042 32.3917 64.0042 32.3918L63.0043 32.3788L64.0042 32.3916ZM64.0042 32.3916C64.0118 31.8016 63.8982 31.2161 63.6701 30.6723C63.442 30.1283 63.1042 29.6375 62.6775 29.2317C62.2507 28.8257 61.7443 28.5137 61.1903 28.3162C60.6388 28.1196 60.0527 28.041 59.4693 28.0857M59.4693 28.0857L50.7822 28.6325L50.7822 28.6324L50.7709 28.6333C49.5835 28.7215 48.4749 29.2581 47.663 30.1329C46.8516 31.0071 46.3952 32.1555 46.3801 33.3507M59.4693 28.0857C59.4665 28.0859 59.4637 28.0861 59.461 28.0863L59.5393 29.0832M59.4693 28.0857L59.4765 28.0852L59.5393 29.0832M46.3801 33.3507L47.38 33.3637M46.3801 33.3507L50.845 29.6305M59.5393 29.0832L50.845 29.6305M59.5393 29.0832L50.845 29.6305M50.845 29.6305C49.9115 29.6999 49.0375 30.1219 48.396 30.8131C47.7544 31.5044 47.3919 32.4145 47.38 33.3637M47.38 33.3637C47.3741 33.817 47.4614 34.2665 47.6364 34.6836C47.8113 35.1007 48.07 35.4762 48.396 35.7863C48.722 36.0964 49.1082 36.3341 49.5298 36.4844C49.9515 36.6348 50.3994 36.6943 50.845 36.6593M47.38 33.3637L50.845 36.6593M50.845 36.6593L50.8925 37.4123L50.845 36.6593ZM50.845 36.6593L50.9041 37.4118L59.5393 36.111L50.845 36.6593Z" fill="#17D4A7" stroke="#69E7C8" stroke-width="2" stroke-linecap="round" stroke-linejoin="round"/>
</g>
<defs>
<filter id="filter0_d_4018_9779" x="14.9945" y="7.00098" width="50.0101" height="48.0054" filterUnits="userSpaceOnUse" color-interpolation-filters="sRGB">
<feFlood flood-opacity="0" result="BackgroundImageFix"/>
<feColorMatrix in="SourceAlpha" type="matrix" values="0 0 0 0 0 0 0 0 0 0 0 0 0 0 0 0 0 0 127 0" result="hardAlpha"/>
<feOffset dx="-8" dy="2"/>
<feGaussianBlur stdDeviation="2.5"/>
<feComposite in2="hardAlpha" operator="out"/>
<feColorMatrix type="matrix" values="0 0 0 0 0.0919117 0 0 0 0 0.830339 0 0 0 0 0.653116 0 0 0 0.25 0"/>
<feBlend mode="normal" in2="BackgroundImageFix" result="effect1_dropShadow_4018_9779"/>
<feBlend mode="normal" in="SourceGraphic" in2="effect1_dropShadow_4018_9779" result="shape"/>
</filter>
<radialGradient id="paint0_radial_4018_9779" cx="0" cy="0" r="1" gradientUnits="userSpaceOnUse" gradientTransform="translate(52.5 1.50001) rotate(157.932) scale(19.9625 94.521)">
<stop stop-color="white" stop-opacity="0.5"/>
<stop offset="1" stop-color="white" stop-opacity="0"/>
</radialGradient>
</defs>
</svg>

<svg xmlns="http://www.w3.org/2000/svg" width="66" height="56" fill="none">
  <path fill="#fff" stroke="#E7E7EE" stroke-linecap="round" stroke-miterlimit="10" stroke-width="2" d="m57.536 10.284-56.1 4v28.685c0 4.643 3.938 8.31 8.569 7.98l40.1-2.859a8 8 0 0 0 7.431-7.98V10.284Z"/>
  <path fill="#17233A" stroke="#E7E7EE" stroke-linecap="round" stroke-miterlimit="10" stroke-width="2" d="M49.708 1.994 8.867 4.906a8 8 0 0 0-7.431 7.98v.398l56.1-4a7.309 7.309 0 0 0-7.828-7.29Z"/>
  <path fill="#E7E7EE" d="M51.708 1.994 10.867 4.906a8 8 0 0 0-7.431 7.98v.398l56.1-4a7.309 7.309 0 0 0-7.828-7.29Z"/>
  <path fill="url(#a)" d="M51.708 1.994 10.867 4.906a8 8 0 0 0-7.431 7.98v.398l56.1-4a7.309 7.309 0 0 0-7.828-7.29Z"/>
  <path stroke="#E7E7EE" stroke-linecap="round" stroke-miterlimit="10" stroke-width="2" d="M51.708 1.994 10.867 4.906a8 8 0 0 0-7.431 7.98v.398l56.1-4a7.309 7.309 0 0 0-7.828-7.29Z"/>
  <path fill="#B8B8CC" d="M8.982 10.919a1.66 1.66 0 1 0 0-3.319 1.66 1.66 0 0 0 0 3.319Zm4.616-.4a1.66 1.66 0 1 0 0-3.32 1.66 1.66 0 0 0 0 3.32Zm4.617-.348a1.66 1.66 0 1 0 0-3.318 1.66 1.66 0 0 0 0 3.319Z"/>
  <path fill="#fff" stroke="#E7E7EE" stroke-linecap="round" stroke-miterlimit="10" stroke-width="2" d="m59.536 9.284-56.1 4v30.685c0 4.643 3.938 8.31 8.569 7.98l40.1-2.859a8 8 0 0 0 7.431-7.98V9.284Z"/>
  <g fill="#17D4A7" stroke="#69E7C8" stroke-linecap="round" stroke-linejoin="round" stroke-width="2" filter="url(#b)">
    <path d="M38.973 30.684a4.809 4.809 0 0 0-1.16 2.196 4.27 4.27 0 0 0-4.388-3.15h0-.005c-.888.06-1.74.375-2.454.91a4.82 4.82 0 0 0-1.604 2.087 4.614 4.614 0 0 0-.25 2.605 4.25 4.25 0 0 0 1.241 2.276c.64.609 1.456 1 2.33 1.116a4.503 4.503 0 0 0 2.572-.415 4.804 4.804 0 0 0 1.963-1.762c.195-.305.353-.631.472-.97v7.118a4.303 4.303 0 0 0 1.327 3.153 4.2 4.2 0 0 0 1.487.915 4.177 4.177 0 0 0 1.727.23 4.72 4.72 0 0 0 3.106-1.499 4.822 4.822 0 0 0 1.284-3.218h0v-8.793a4.305 4.305 0 0 0-.335-1.712 4.265 4.265 0 0 0-.993-1.44 4.18 4.18 0 0 0-3.214-1.146 4.718 4.718 0 0 0-3.106 1.5l.718.666-.718-.666Z"/>
    <path d="M39.706 19.963h0A4.196 4.196 0 0 1 38.035 18v-.002a4.493 4.493 0 0 1-.255-2.596l1.926 4.561Zm0 0 .004.002m-.004-.002.004.002m0 0c.353.216.733.378 1.128.483l-7.44.469h0-.012a4.72 4.72 0 0 0-3.107 1.5 4.822 4.822 0 0 0-1.284 3.218v.001a4.281 4.281 0 0 0 1.328 3.159 4.23 4.23 0 0 0 1.487.915 4.178 4.178 0 0 0 1.72.231l8.688-.548h.011a4.72 4.72 0 0 0 3.108-1.5 4.822 4.822 0 0 0 1.284-3.218v-.001a4.305 4.305 0 0 0-.335-1.719 4.265 4.265 0 0 0-.993-1.44 4.212 4.212 0 0 0-2.136-1.09 4.704 4.704 0 0 0 3.468-4.538v-.034a4.375 4.375 0 0 0-.758-2.482h0l-.002-.004a4.178 4.178 0 0 0-2.046-1.57l-.002-.002m-4.107 8.17 4.107-8.17m0 0a4.374 4.374 0 0 0-2.594-.096l2.594.096Zm-4.84 1.262a4.838 4.838 0 0 0-1.197 2.345l3.443-3.703a4.756 4.756 0 0 0-2.246 1.358Z"/>
    <path d="M54.027 27.343a4.81 4.81 0 0 0 1.161-2.199 4.269 4.269 0 0 0 4.387 3.153h.005a4.626 4.626 0 0 0 2.456-.91 4.84 4.84 0 0 0 1.603-2.087 4.63 4.63 0 0 0 .25-2.605h0a4.25 4.25 0 0 0-1.242-2.275 4.17 4.17 0 0 0-2.33-1.116 4.508 4.508 0 0 0-2.572.415h-.001a4.818 4.818 0 0 0-2.434 2.734v-7.14a4.303 4.303 0 0 0-.334-1.713 4.261 4.261 0 0 0-.993-1.44 4.21 4.21 0 0 0-1.487-.916l-.336.942.336-.942a4.177 4.177 0 0 0-1.727-.23 4.717 4.717 0 0 0-3.106 1.5 4.82 4.82 0 0 0-1.283 3.218h0v8.811a4.267 4.267 0 0 0 1.327 3.153 4.175 4.175 0 0 0 3.214 1.145 4.718 4.718 0 0 0 3.106-1.498Z"/>
    <path d="M53.297 38.037h0a4.214 4.214 0 0 1 1.669 1.962l.001.003a4.5 4.5 0 0 1 .254 2.595v.002a4.844 4.844 0 0 1-1.198 2.343 4.76 4.76 0 0 1-2.245 1.359h0a4.386 4.386 0 0 1-2.594-.096l-.003-.001a4.17 4.17 0 0 1-2.045-1.574l-.002-.002a4.366 4.366 0 0 1-.758-2.481v-.036a4.703 4.703 0 0 1 3.409-4.522 4.181 4.181 0 0 1-2.078-1.078 4.264 4.264 0 0 1-.993-1.44 4.303 4.303 0 0 1-.334-1.72l6.917 4.686Zm0 0-.007-.004a4.32 4.32 0 0 0-1.05-.46m1.057.464-1.056-.464m0 0 7.361-.464h.011a4.717 4.717 0 0 0 3.108-1.5 4.82 4.82 0 0 0 1.283-3.217m-11.763 5.181-5.86-4.222m17.623-.96s0 0 0 0l-1-.012 1 .013Zm0 0a4.302 4.302 0 0 0-.334-1.719 4.262 4.262 0 0 0-.992-1.44 4.208 4.208 0 0 0-1.488-.916 4.175 4.175 0 0 0-1.72-.23m0 0-8.688.547h0-.011a4.717 4.717 0 0 0-3.108 1.5 4.82 4.82 0 0 0-1.283 3.218m13.09-5.265h-.009l.078.997m-.07-.997h.008l.062.997M46.38 33.351l1 .013m-1-.013 4.465-3.72m8.694-.548-8.694.548m8.694-.548-8.694.548m0 0a3.718 3.718 0 0 0-2.449 1.182 3.82 3.82 0 0 0-1.016 2.55m0 0a3.294 3.294 0 0 0 1.016 2.423 3.203 3.203 0 0 0 2.449.873m-3.465-3.295 3.465 3.295m0 0 .047.753-.047-.753Zm0 0 .06.753 8.634-1.301-8.694.548Z"/>
  </g>
  <defs>
    <radialGradient id="a" cx="0" cy="0" r="1" gradientTransform="matrix(-18.50002 7.50005 -35.51218 -87.59626 52.5 1.5)" gradientUnits="userSpaceOnUse">
      <stop stop-color="#fff" stop-opacity=".5"/>
      <stop offset="1" stop-color="#fff" stop-opacity="0"/>
    </radialGradient>
    <filter id="b" width="50.01" height="48.005" x="14.995" y="7.001" color-interpolation-filters="sRGB" filterUnits="userSpaceOnUse">
      <feFlood flood-opacity="0" result="BackgroundImageFix"/>
      <feColorMatrix in="SourceAlpha" result="hardAlpha" values="0 0 0 0 0 0 0 0 0 0 0 0 0 0 0 0 0 0 127 0"/>
      <feOffset dx="-8" dy="2"/>
      <feGaussianBlur stdDeviation="2.5"/>
      <feComposite in2="hardAlpha" operator="out"/>
      <feColorMatrix values="0 0 0 0 0.0919117 0 0 0 0 0.830339 0 0 0 0 0.653116 0 0 0 0.25 0"/>
      <feBlend in2="BackgroundImageFix" result="effect1_dropShadow_4018_9779"/>
      <feBlend in="SourceGraphic" in2="effect1_dropShadow_4018_9779" result="shape"/>
    </filter>
  </defs>
</svg>
